P2
24 7
255
255 255 255 255 255 255 255 255 255 255 255 255 255 255 255 255 255 255 255 255 255 255 255 255
255 0 0 0 0 255 68 68 68 68 68 255 136 136 136 136 136 255 204 204 204 204 204 255
255 0 255 255 0 255 68 255 68 255 68 255 136 255 255 255 136 255 255 255 255 255 204 255
255 0 0 0 0 255 68 255 68 255 68 255 136 255 255 255 136 255 255 255 255 255 204 255
255 255 255 255 0 255 68 255 68 255 68 255 136 255 255 255 136 255 255 255 255 255 204 255
255 255 255 255 0 255 68 255 68 255 68 255 136 136 136 136 136 255 204 204 204 204 204 255
255 255 255 255 255 255 255 255 255 255 255 255 255 255 255 255 255 255 255 255 255 255 255 255
